packages/icons/src/lib/svgs/list.svg

<svg
        aria-hidden="true"
        data-testid="test-icon"
        fill="none"
        
        viewBox="0 0 24 24"
        
        xmlns="http://www.w3.org/2000/svg"
        
    >
        <title>list icon</title>
        <path
            fillRule="evenodd"
            clipRule="evenodd"
            d="M7 6C7 5.44772 7.44772 5 8 5H21C21.5523 5 22 5.44772 22 6C22 6.55228 21.5523 7 21 7H8C7.44772 7 7 6.55228 7 6Z"
            fill="currentColor"
        />
        <path
            fillRule="evenodd"
            clipRule="evenodd"
            d="M7 12C7 11.4477 7.44772 11 8 11H21C21.5523 11 22 11.4477 22 12C22 12.5523 21.5523 13 21 13H8C7.44772 13 7 12.5523 7 12Z"
            fill="currentColor"
        />
        <path
            fillRule="evenodd"
            clipRule="evenodd"
            d="M7 18C7 17.4477 7.44772 17 8 17H21C21.5523 17 22 17.4477 22 18C22 18.5523 21.5523 19 21 19H8C7.44772 19 7 18.5523 7 18Z"
            fill="currentColor"
        />
        <path
            fillRule="evenodd"
            clipRule="evenodd"
            d="M2 6C2 5.44772 2.44772 5 3 5H3.01C3.56228 5 4.01 5.44772 4.01 6C4.01 6.55228 3.56228 7 3.01 7H3C2.44772 7 2 6.55228 2 6Z"
            fill="currentColor"
        />
        <path
            fillRule="evenodd"
            clipRule="evenodd"
            d="M2 12C2 11.4477 2.44772 11 3 11H3.01C3.56228 11 4.01 11.4477 4.01 12C4.01 12.5523 3.56228 13 3.01 13H3C2.44772 13 2 12.5523 2 12Z"
            fill="currentColor"
        />
        <path
            fillRule="evenodd"
            clipRule="evenodd"
            d="M2 18C2 17.4477 2.44772 17 3 17H3.01C3.56228 17 4.01 17.4477 4.01 18C4.01 18.5523 3.56228 19 3.01 19H3C2.44772 19 2 18.5523 2 18Z"
            fill="currentColor"
        />
    </svg>

<svg aria-hidden="true" data-testid="test-icon" fill="currentColor" viewBox="0 0 24 24" xmlns="http://www.w3.org/2000/svg"><path fill-rule="evenodd" clip-rule="evenodd" d="M7 6a1 1 0 011-1h13a1 1 0 110 2H8a1 1 0 01-1-1zM7 12a1 1 0 011-1h13a1 1 0 110 2H8a1 1 0 01-1-1zM7 18a1 1 0 011-1h13a1 1 0 110 2H8a1 1 0 01-1-1zM2 6a1 1 0 011-1h.01a1 1 0 010 2H3a1 1 0 01-1-1zM2 12a1 1 0 011-1h.01a1 1 0 110 2H3a1 1 0 01-1-1zM2 18a1 1 0 011-1h.01a1 1 0 110 2H3a1 1 0 01-1-1z"/></svg>
